X:1
T:Title
%%score { ( 1 3 5 ) | ( 2 4 6 ) }
L:1/8
Q:1/4=110
M:4/4
K:G
V:1 treble nm="Grand Piano"
V:3 treble 
V:5 treble 
V:2 bass 
V:4 bass 
V:6 bass 
V:1
 D2 G2 B3 A | [EG]2 [DF]2 E2 G2 | D2 z A, [G,DG]2 [DGB]2 | [DGB]2 [DFA]2 [DFA]2 z2 | %4
w: J.~G.~Dailey * * *||||
 [B,D]2 [DG]2 [DB]3 [^DA] | [G,EG]2 [G,DF]2 [G,CE]2 [G,EG]2 | [G,D]>[Gc] [GB]>[EA] G2 F2 | %7
w: |||
[M:11/16] G/-G/-G/-G/-G-<G z/ z |[M:5/16] B<AG/ |[M:4/4] c6 z2 | z z/ [DG]/ [DG]>G G2 (3z GB | %11
w: ||||
 d2 B2 [DAc]2 [DGB]2 | A->[GA] z z/ G/ .F2 z2 | z z/ [EG]/ [EG]>G .G2 z2 | %14
w: |||
 z z/ [EG]/ [EG]>G G2 (3z GB | d2 B2 A3 G | G6 z2 |] %17
w: |||
V:2
 [G,B,]2 [G,B,D]2 [G,D]3 [G,^D] | [C,G,]2 [C,G,]2 [C,G,C]2 [C,C]2 | [D,B,]2 [D,B,]C, B,,2 G,,2 | %3
 D,2 D,2 D,2 (3C,B,,A,, | G,2 G,2 G,3 G, | C,2 C,2 C,2 C,2 | %6
 B,,>[A,,A,] [B,,G,]>[C,A,] [D,B,D]2 [D,CD]2 | %7
[M:11/16] [G,B,D]/-[G,B,D]/-[G,B,D]/-[G,B,D]/-[G,B,D]-<[G,B,D] z/ z |[M:5/16] z5/2 | %9
[M:4/4] z2 z z/ E/[K:treble] z4 | B6[K:bass] z2 | [G,B,G]2 [G,CG]2[K:bass] G,2 G,2 | %12
 z z/ B,/ C>B, .A,>[K:treble]B A>G | c6[K:bass][K:treble] z2 | B6[K:bass] z2 | %15
 [G,B,G]2 [G,DG]2[K:bass] [D,CD]3 [G,B,D] | [G,B,D]6 z2 |] %17
V:3
 x8 | x8 | z2 D2 z4 | x8 | x8 | x8 | x8 |[M:11/16] x11/2 |[M:5/16] x5/2 | %9
[M:4/4] z z/ [EG]/ [EG]>G G2 z2 | z4 z2 z z/ D/ | x8 | [CF]2 A4 z2 | x8 | z4 z2 z z/ D/ | x8 | %16
 x8 |] %17
V:4
 x8 | x8 | x8 | x8 | x8 | x8 | x8 |[M:11/16] x11/2 |[M:5/16] x5/2 | %9
[M:4/4] z z/ C,/ (3C,E,G,[K:treble] E>B A>G | z2[K:bass] z z/ D/ z4 | x4[K:bass] x4 | %12
 D,6[K:treble] z2 | z2[K:bass] z z/ E/[K:treble] z4 | z2[K:bass] z z/ E/ z4 | x4[K:bass] x4 | x8 |] %17
V:5
 x8 | x8 | x8 | x8 | x8 | x8 | x8 |[M:11/16] x11/2 |[M:5/16] x5/2 |[M:4/4] x8 | z4 z2 D2 | x8 | %12
 x8 | x8 | z4 z2 D2 | x8 | x8 |] %17
V:6
 x8 | x8 | x8 | x8 | x8 | x8 | x8 |[M:11/16] x11/2 |[M:5/16] x5/2 |[M:4/4] x4[K:treble] x4 | %10
 z z/[K:bass] G,,/ (3G,,B,,D, [G,D]2 [G,B,]>G, | x4[K:bass] x4 | x11/2[K:treble] x5/2 | %13
 z z/[K:bass] C,/ (3C,E,G,[K:treble] .E>B A>G | z z/[K:bass] G,,/ (3G,,B,,D, [G,D]2 [G,B,]>G, | %15
 x4[K:bass] x4 | x8 |] %17

